X: 42496
T: What Colour Is That Horse?
R: jig
M: 6/8
K: Edorian
|:EGB EGB|ABA FED|EGB EGB|ABd e2f|
g/a/bg efg|fdB AFD|EGB FAB|1 GEE E2D:|2 GEE E3||
|:eBe GBe|dcd Adf|e2e Beg|gag fed|
~e3 GBe|d2d AFD|EGB FAB|1 GEE E3:|2 GEE E2D||

